X: 2121
Q: "Reel."
M: C
L: 1/8
K: G
uc |\
d3g BGdB | Aaag fdef |\
gfgd BcdB | cAdc BGG ::\
c |\
[1 BGDG EGce | dBcA BGG :|\
[2 Bdgd ceag | fdef gGG |]


